X: 1334
T: Mahrum-i Şevkim
C: Rahmi Bey
O: Turkey
F: http://compmusic.upf.edu/node/140
N: kurdilihicazkar--sarki--aksak--mahrum-i_sevkim--rahmi_bey
N: makam= kurdilihicazkar
N: form= sarki
N: usul= aksak = 9/8
M: 9/8
L: 1/16
K: C _B _e _A 
Q: 1/4=126
%%MIDI tuningsystem comma53
f2gg g2g2 g2ag g4 gf | f3_1/4ee3dd2 {e}dcc4z2  | \
w:  ARANAĞME  |   | 
B3c d2e2 fefa gfed c2 | 
w:   | 
Bc dedc cBBA AGG6  | f2gg g2g2 g2ag g4 gf | 
w:   |  ARANAĞME  | 
f3_1/4ee3dd2 {e}dcc4z2  | B3c d2e2 fefa gfed c2 | 
w:   |   | 
Bc dedc cBBA AGG6  | G4 f4 g4 g4 =a2 | \
w:   |  *  Mah rum_ i   | 
g2 f2_1/4e2 f2g2 =agg6  | 
w:  şev *  *  *  kim   | 
z4 b=ag2 f2_1/4e2 d2e2 g2 | f3_1/4ee2 {f}edd4b4=ac'  | \
w:  ru *  *  hum  *  *  *  pür   |  ah *  *  *  *  *  zan   SAZ  | 
b4 b4 b8 b_1/4a | 
w:  *  Me yus_ i   | 
a2 g2a2 g2g2 f2_1/4e4dc  | c2z2 d4 _1/4e2d2 b=ag2 gf | \
w:  aş *  *  *  kım   |  *  du çar_ *  *  *  *  ı   | 
f3_1/4ee2 edd4d3cBA  | 
w:  hic *  *  *  *  ran   SAZ  | 
G4 f4 g4 g4 =a2 | g2 f2_1/4e2 f2g2 =agg6  | \
w:  *  Mah rum_ i   |  şev *  *  *  kim   | 
z4 b=ag2 f2_1/4e2 d2e2 g2 | 
w:  ru *  *  hum  *  *  *  pür   | 
f3_1/4ee2 {f}edd4b4=ac'  | b4 b4 b8 b_1/4a | \
w:  ah *  *  *  *  *  zan   SAZ  |  *  Me yus_ i   | 
a2 g2a2 g2g2 f2_1/4e4dc  | 
w:  aş *  *  *  kım   | 
c2z2 d4 _1/4e2d2 b=ag2 gf | f3_1/4ee2 edd4g3f_ef  | \
w:  *  du çar_ *  *  *  *  ı   |  hic *  *  *  *  ran   SAZ  | 
g4 f2g2 g2f2 e4 c'2 | 
w:  *  Ha *  lim  *  *  pe  | 
b2 =a2g2 f2e2 {f}ede6  | z4 d2e2 g4 gfed c2 | \
w:  ri *  *  *  şan   |  ak *  lım  *  *  *  *  pe  | 
d2 efed c2B2 c2d6  | 
w:  ri *  *  *  *  *  şan    | 
z4 d2_1/4e2 f2e2 f2g2 a2 | g2 f2e2 d2cB cdB4AG  | \
w:  Gön *  lüm  *  *  *  pe  |  ri *  *  *  şan   | 
F4 G4 A2G2 edc2 cB | 
w:  *  öm rüm  *  *  *  *  pe  | 
B2 {c}BAA2 {B}AGG4d3cBc  | d4 c4 d8 e2 | \
w:  ri *  *  *  *  *  *  *  şan   SAZ  |  *  Yad_ ı  mu  | 
d3cB2 c2d2 _1/4e2f2 e2f2  | 
w:  hab *  *  *  bet   | 
g4 d2c2 c2B2 c2d2 cB | B2 {c}BAA2 {B}AGG4f4_1/4eg  | \
w:  *  gir *  yan  *  *  *  gi  |  ri *  *  *  *  *  *  *  zan   SAZ  | 
f4 f4 f2_1/4e2 d4 e2 | 
w:  *  Pey man_ *  *  ı   | 
f3=ag2 f2_1/4e3dc6  | z4 d4 e2d2 b=ag2 gf | \
w:  vus *  *  *  lat   |  na lan  *  *  *  *  pe  | 
f3_1/4ee2 {f}edd4g3fef  | 
w:  ri *  *  *  *  *  şan   SAZ  | 
g4 f2g2 g2f2 e4 c'2 | b2 =a2g2 f2e2 {f}ede6  | \
w:  *  Ha *  lim  *  *  pe  |  ri *  *  *  şan   | 
z4 d2e2 g4 gfed c2 | 
w:  ak *  lım  *  *  *  *  pe  | 
d2 efed c2B2 c2d6  | z4 d2_1/4e2 f2e2 f2g2 a2 | \
w:  ri *  *  *  *  *  şan    |  Gön *  lüm  *  *  *  pe  | 
g2 f2e2 d2cB cdB4AG  | 
w:  ri *  *  *  şan   | 
F4 G4 A2G2 edc2 cB | B2 {c}BAA2 {B}AGG4|
w:  *  öm rüm  *  *  *  *  pe  |  ri *  *  *  *  *  *  *  şan    | 


